X:1
T:Hid Away with Jesus
T:Hid Away with Jesus
T:Barney Elliott Warren
T:John F. Starcher, 1897
T:Public Domain Courtesy of the Cyber Hymnal™
T:Public Domain Courtesy of the Cyber Hymnal™
C:Barney Elliott Warren
Z:Public Domain
Z:Courtesy of the Cyber Hymnal™
%%score ( 1 2 ) ( 3 4 )
L:1/8
Q:1/4=100
M:6/8
K:Db
V:1 treble 
V:2 treble 
V:3 bass 
V:4 bass 
V:1
 [FA] | [FA]2 [DF] [FA]2 [Fd] | [DF]2 D [DF]2 [FA] | [EG]2 [DF] [CE]2 [GB] | [FA]3 [DF]2 [FA] | %5
w: 1.~I’m|hid a- way with|Christ in God, Yes,|hid a- way with|Je- sus; I’m|
w: 2.~The|nar- row way is|now so plain, I’m|hid a- way with|Je- sus; That|
w: 3.~O|bro- ther dear, to|keep good cheer, Be|hid a- way with|Je- sus; For|
w: 4.~O|sin- ner, turn to|God and live, Be|hid a- way with|Je- sus; A|
 [FA]2 [DF] [FA]2 [Fd] | [DF]2 D [DF]2 [FA] | [EG]2 [DF] [CE]2 [EG] | [DF]3 D2 [FA] | %9
w: now be- neath the|drip- ping blood, I’m|hid a- way with|Je- sus. I’m|
w: fools shall nev- er|err there- in, I’m|hid a- way with|Je- sus. The|
w: then you’ll find your|Sav- ior near, Keep|hid a- way with|Je- sus. We’re|
w: crown of life to|you He’ll give, When|hid a- way with|Je- sus. Re-|
 [GA]2 [GB] [Gc]2 A | [Ad]2 [Ae] [Af]2 [Ad] | [Ge]2 [GA] [EG]2 [CG] | [DF]2 [EG] [FA]2 [FA] | %13
w: walk- ing with my|bless- èd Lord, I’m|trust- ing in His|pre- cious word; I|
w: gate that’s straight is|just be- fore, Which,|when we reach we’ll|sigh no more; Our|
w: bask- ing now in|Hea- ven’s light, By|faith and prayer our|way shines bright; We|
w: pent, be- lieve, and|love Him, too, For|He has done so|much for you; He’ll|
 [GB]2 [Gd] [Gd]2 [GB] | [FA]2 [DF] [FA]2 [Ad] | [Gc]2 [GA] [GB]2 [Gc] | [Fd]3 [Fd]2 || %17
w: find His ser- vice|is not hard, I’m|hid a- way with|Je- sus.|
w: sor- rows then will|all be o’er, I’m|hid a- way with|Je- sus.|
w: get so near that|Heav’n’s in sight, When|hid a- way with|Je- sus.|
w: wash and cleanse you|thro’ and thro’— Be|hid a- way with|Je- sus.|
"^Refrain" [DF] | [CE]2 [DF] !fermata![EG]2 [EG] | [DF]2 [EG] !fermata![FA]2 [FA] | %20
w: |||
w: |||
w: |||
w: |||
 [FB]2 [FB] [EA]2 [D=G] | [CA-]3 !fermata![GA]2 [GA] | [Fd]2 [Gd] [Ad]2 [FA] | %23
w: |||
w: |||
w: |||
w: |||
 [Ac]2 [GB] [FA]2 [EG] | [DF]3 [CE]2 [CE] | D3- D2 |] %26
w: |||
w: |||
w: |||
w: |||
V:2
 x | x6 | x2 D x3 | x6 | x6 | x6 | x2 D x3 | x6 | x3 D2 x | x5 A | x6 | x6 | x6 | x6 | x6 | x6 | %16
 x5 || x | x6 | x6 | x6 | x6 | x6 | x6 | x6 | D3- D2 |] %26
V:3
 [D,A,] | [D,A,]2 [D,A,] [D,D]2 [D,A,] | [D,A,]2 [D,F,] [D,A,]2 [D,A,] | %3
w: |||
 [A,,A,]2 [A,,A,] [A,,A,]2 [A,,C] | [D,D]3 [D,A,]2 [D,A,] | [D,A,]2 [D,A,] [D,D]2 [D,A,] | %6
w: |||
 [D,A,]2 [D,F,] [D,A,]2 [D,A,] | [A,,A,]2 [A,,A,] [A,,A,]2 [A,,A,] | [D,A,]3 [D,F,]2 [D,D] | %9
w: |||
 [A,C]2 [A,D] [A,E]2 [G,C] | [F,D]2 [E,C] [D,D]2 [F,D] | [A,C]2 [A,C] [A,,C]2 [A,,A,] | %12
w: |||
 [D,A,]2 [D,A,] [D,D]2 [D,D] | [G,D]2 [G,B,] [G,B,]2 [G,D] | [D,D]2 [D,D] [D,D]2 [F,D] | %15
w: |||
 [A,E]2 [A,C] [A,,A,]2 [A,,A,] | [D,A,]3 [D,A,]2 || [D,A,] | %18
w: ||I’m|
 [A,,A,]2 [A,,A,] !fermata![A,,A,]2 [A,,A,] | [D,A,]2 [D,A,] !fermata![D,D]2 D | %20
w: hid a- way, yes|hid a- way, I’m|
 [B,,D]2 [B,,D] [E,C]2 [E,B,] | [A,,-A,]3 !fermata![A,,C]2 [A,C] | [D,D]2 [E,A,] [F,A,]2 [D,D] | %23
w: hid with Christ in|God; I’m dead|to sin, a- live|
 [G,D]2 [G,D] [G,D]2 [G,B,] | A,3 [A,,G,]2 [A,,G,] | [D,F,]3- [D,F,]2 |] %26
w: in Christ, I’m washed|in His blood.||
V:4
 x | x6 | x6 | x6 | x6 | x6 | x6 | x6 | x6 | x6 | x6 | x6 | x6 | x6 | x6 | x6 | x5 || x | x6 | %19
 x5 (D,/C,/) | x6 | x6 | x6 | x6 | A,3 x3 | x5 |] %26

